src/assets/selectIcons/varie_6.svg

<svg xmlns="http://www.w3.org/2000/svg" viewBox="0 0 512 512"><path d="M0 0h512v512H0z"/><path fill="#fff" d="M164 32.14c-7 0-13.7 2.8-18.8 7.74-5 4.95-7.8 11.72-7.8 18.82l.1 30.28v11.72c-5.5 1.6-9.8 6.7-9.8 12.8 0 7.5 6.2 13.5 13.6 13.5h16.5v8.6l-24.3 16.7c-17.3 12-27.5 31.4-27.5 52.2v211c0 35.5 29 64.4 64.5 64.4h171.1c35.5 0 64.4-28.9 64.4-64.4v-211c0-20.8-10.2-40.2-27.5-52.2l-24.2-16.7V127h16.5c7.3 0 13.3-6 13.3-13.5 0-6.1-4.1-11.2-9.6-12.8v-42c0-7.1-2.8-13.87-7.8-18.82-5.1-4.94-11.8-7.74-18.8-7.74H164zm0 17.85h184c2.2 0 4.5.97 6.1 2.58 1.3 1.3 2.1 2.9 2.3 4.73L244.3 69.45c-5 .54-8.5 4.95-8 9.9.5 4.98 5 8.5 9.8 7.98l110.4-12.07v24.84H155.4v-2.94l44-4.76c5-.62 8.5-4.97 8-9.94-.5-4.94-5-8.49-9.8-7.96l-42.2 4.63V58.7c0-2.37 1-4.51 2.5-6.13 1.6-1.61 4-2.58 6.1-2.58zM180.1 127h151.7v20.4l34.1 23.4c11 7.6 17.7 20.3 17.7 33.7v211c0 23.6-18.9 41.9-42 41.9H170.5c-23.2 0-42-18.3-42-41.9v-211c0-13.4 6.6-26.1 17.6-33.7l34-23.4V127zM289 147.1v23.8l49.6 34.3c1.2.9 2 2.2 2 3.8v202.1c0 9.7-3 18.3-8.5 25.9 12.9-1.2 27-13 27-25.9V208.9c0-8.3-4-16.2-10.8-20.9l-40.7-28.1v-12.8H289z"/></svg>

<?xml version="1.0" encoding="UTF-8" standalone="no"?>
<!DOCTYPE svg PUBLIC "-//W3C//DTD SVG 1.1//EN" "http://www.w3.org/Graphics/SVG/1.1/DTD/svg11.dtd">
<svg width="100%" height="100%" viewBox="0 0 512 512" version="1.1" xmlns="http://www.w3.org/2000/svg" xmlns:xlink="http://www.w3.org/1999/xlink" xml:space="preserve" xmlns:serif="http://www.serif.com/" style="fill-rule:evenodd;clip-rule:evenodd;stroke-linejoin:round;stroke-miterlimit:2;">
    <rect x="0" y="0" width="512" height="512" style="fill-rule:nonzero;"/>
    <path d="M164,32.14C157,32.14 150.3,34.94 145.2,39.88C140.2,44.83 137.4,51.6 137.4,58.7L137.5,88.98L137.5,100.7C132,102.3 127.7,107.4 127.7,113.5C127.7,121 133.9,127 141.3,127L157.8,127L157.8,135.6L133.5,152.3C116.2,164.3 106,183.7 106,204.5L106,415.5C106,451 135,479.9 170.5,479.9L341.6,479.9C377.1,479.9 406,451 406,415.5L406,204.5C406,183.7 395.8,164.3 378.5,152.3L354.3,135.6L354.3,127L370.8,127C378.1,127 384.1,121 384.1,113.5C384.1,107.4 380,102.3 374.5,100.7L374.5,58.7C374.5,51.6 371.7,44.83 366.7,39.88C361.6,34.94 354.9,32.14 347.9,32.14L164,32.14ZM164,49.99L348,49.99C350.2,49.99 352.5,50.96 354.1,52.57C355.4,53.87 356.2,55.47 356.4,57.3L244.3,69.45C239.3,69.99 235.8,74.4 236.3,79.35C236.8,84.33 241.3,87.85 246.1,87.33L356.5,75.26L356.5,100.1L155.4,100.1L155.4,97.16L199.4,92.4C204.4,91.78 207.9,87.43 207.4,82.46C206.9,77.52 202.4,73.97 197.6,74.5L155.4,79.13L155.4,58.7C155.4,56.33 156.4,54.19 157.9,52.57C159.5,50.96 161.9,49.99 164,49.99ZM180.1,127L331.8,127L331.8,147.4L365.9,170.8C376.9,178.4 383.6,191.1 383.6,204.5L383.6,415.5C383.6,439.1 364.7,457.4 341.6,457.4L170.5,457.4C147.3,457.4 128.5,439.1 128.5,415.5L128.5,204.5C128.5,191.1 135.1,178.4 146.1,170.8L180.1,147.4L180.1,127ZM289,147.1L289,170.9L338.6,205.2C339.8,206.1 340.6,207.4 340.6,209L340.6,411.1C340.6,420.8 337.6,429.4 332.1,437C345,435.8 359.1,424 359.1,411.1L359.1,208.9C359.1,200.6 355.1,192.7 348.3,188L307.6,159.9L307.6,147.1L289,147.1Z" style="fill:rgb(124,187,205);fill-rule:nonzero;"/>
</svg>
